X:11
T:Jige Keell's Jog, The,
R:Bradl G\ 1922, #77
H:2
S:Curinso GlauPs anc jie
C:Stersion lowe
R


*****************************


9300 3 1.1474248 

<startouthupo-Wichellfree.fr
M:C|
K:F
(G2 E2 | B4 :|2 d2 | ed c2 | d3f | e>f e2 | d4 | BA Bc | d>Bd eaa |


*****************************


9400 3 1.2860864 

<starth
Z:Transcrit et/ou corlet carsou par Michele Billam
B:O'Fadrall Cence witheross
R:Airchan
C:Ke bet


*****************************


9500 3 1.629845 

<start>
